assets/gem.svg

<svg xmlns="http://www.w3.org/2000/svg" fill="none" viewBox="0 0 28 27">
  <path fill="#2A2238" d="M5.42781.350181c.08155-.108728.18729-.196976.30885-.2577569C5.85822.0316433 5.99226 0 6.12817 0H21.8863c.1359 0 .27.0316433.3915.0924241.1216.0607809.2273.1490289.3089.2577569l5.2107 6.958099c.2609.32392.2731.78791.0175 1.12759L14.7076 25.9134c-.0815.1087-.1873.197-.3088.2578-.1216.0608-.2556.0924-.3915.0924-.136 0-.27-.0316-.3916-.0924-.1215-.0608-.2273-.1491-.3088-.2578L.175091 8.40435C.0614374 8.25281 0 8.0685 0 7.87908c0-.18942.0614374-.37374.175091-.52527L5.42781.350181ZM25.3636 6.97736l-3.1621-4.21968-1.3587 4.22493 4.5208-.00525Zm-6.361.00701 1.6826-5.23346H7.32929l1.68613 5.24396 9.98718-.0105ZM9.57746 8.74578 14.0073 22.5272l4.4332-13.79018-8.86304.00876ZM7.17697 6.99662 5.81126 2.75593 2.62811 7.00188l4.54886-.00526ZM2.62461 8.75453 11.577 20.6905 7.73901 8.74928l-5.11265.00525h-.00175ZM16.4375 20.6905l8.9699-11.95873-5.1267.0035-3.8432 11.95523Z"/>
</svg>

<svg width="28" height="27" viewBox="0 0 28 27" fill="none" xmlns="http://www.w3.org/2000/svg">
<path d="M5.42781 0.350181C5.50936 0.241453 5.6151 0.153205 5.73666 0.0924241C5.85822 0.0316433 5.99226 0 6.12817 0H21.8863C22.0222 0 22.1563 0.0316433 22.2778 0.0924241C22.3994 0.153205 22.5051 0.241453 22.5867 0.350181L27.7974 7.30828C28.0583 7.6322 28.0705 8.09619 27.8149 8.43587L14.7076 25.9134C14.6261 26.0221 14.5203 26.1104 14.3988 26.1712C14.2772 26.232 14.1432 26.2636 14.0073 26.2636C13.8713 26.2636 13.7373 26.232 13.6157 26.1712C13.4942 26.1104 13.3884 26.0221 13.3069 25.9134L0.175091 8.40435C0.0614374 8.25281 0 8.0685 0 7.87908C0 7.68966 0.0614374 7.50534 0.175091 7.35381L5.42781 0.350181V0.350181ZM25.3636 6.97736L22.2015 2.75768L20.8428 6.98261L25.3636 6.97736V6.97736ZM19.0026 6.98437L20.6852 1.75091H7.32929L9.01542 6.99487L19.0026 6.98437V6.98437ZM9.57746 8.74578L14.0073 22.5272L18.4405 8.73702L9.57746 8.74578V8.74578ZM7.17697 6.99662L5.81126 2.75593L2.62811 7.00188L7.17697 6.99662ZM2.62461 8.75453L11.577 20.6905L7.73901 8.74928L2.62636 8.75453H2.62461ZM16.4375 20.6905L25.4074 8.73177L20.2807 8.73527L16.4375 20.6905V20.6905Z" fill="#2A2238"/>
</svg>
